X: 32
T: Scaramella fa la galla
N: Derived from Com3052-Scaramella_fa_la_galla.krn
C: Loyset Comp\`ere
%%abc-version 2.0
%%abcx-abcm2ps-target-version 5.9.1 (29 Sep 2008)
%%abc-creator hum2abc beta
%%abcx-conversion-date 2019/02/16 20:28:09
%%abc-edited-by Jesse Rodin
%%abc-edited-by Megan K. Eagen 2013/11/28
%%abcx-initial-encoding-date 2013/11/28/
%%humdrum-veritas 1070785926
%%humdrum-veritas-data 2185763893
%%linebreak <none>
%%barnumbers 0
L: 1/4
M: 2/1
Q: 1/2=120
%%staves [1 2 3 4]
V: 1 clef=treble
V: 2 clef=treble-8
V: 3 clef=treble-8
V: 4 clef=bass
K: C
[V:1] z8 | 
[V:2] z8 | 
[V:3] z8 | 
[V:4] F,2G,2A,4 | 
[V:1] z4F2G2 | 
[V:2] z8 | 
[V:3] z8 | 
[V:4] A,2A,4G,2 | 
[V:1] A4A2A2- | 
[V:2] z8 | 
[V:3] z8 | 
[V:4] F,3E,D,2A,2- | 
[V:1] A2A2G3F/E/ | 
[V:2] z8 | 
[V:3] F4G4 | 
[V:4] A,2G,F,E,4 | 
[V:1] E4z2A2- | 
[V:2] z4c2d2 | 
[V:3] A8 | 
[V:4] z2A,,4D,2 | 
[V:1] ABc3BAG | 
[V:2] e4e2e2- | 
[V:3] A4A4- | 
[V:4] C,2A,,2z2A,,2- | 
[V:1] A2G4^F2 | 
[V:2] e2e2d3c | 
[V:3] A4A4 | 
[V:4] A,,B,,C,2D,4 | 
[V:1] G8 | 
[V:2] B4d2d2 | 
[V:3] G6FE | 
[V:4] G,,8 | 
[V:1] z4G2G2 | 
[V:2] c6B2 | 
[V:3] E8 | 
[V:4] z2C,3D,E,2 | 
[V:1] F4E2D2- | 
[V:2] A3Bc2d2- | 
[V:3] z8 | 
[V:4] F,2E,D,C,2G,2- | 
[V:1] D2E2F4 | 
[V:2] dcc4B2 | 
[V:3] z8 | 
[V:4] G,2F,E,D,4 | 
[V:1] E4EDCB, | 
[V:2] c8 | 
[V:3] G4G4 | 
[V:4] C,4C,2C,2 | 
[V:1] A,2F3ED2- | 
[V:2] A8 | 
[V:3] F8 | 
[V:4] D,2D,2D,2D,2 | 
[V:1] D2^C2D4- | 
[V:2] z2A4GF | 
[V:3] E4D4- | 
[V:4] A,,4_B,,4- | 
[V:1] D4z4 | 
[V:2] G4A4 | 
[V:3] D4E4 | 
[V:4] B,,4A,,4 | 
[V:1] z8 | 
[V:2] d2d2c4 | 
[V:3] F4E4 | 
[V:4] z4A,,4 | 
[V:1] D3EF2G2 | 
[V:2] B2A4B2 | 
[V:3] z8 | 
[V:4] G,,2D,4C,B,, | 
[V:1] A4D4 | 
[V:2] c4B4 | 
[V:3] F4G4- | 
[V:4] A,,4G,,4 | 
[V:1] E8 | 
[V:2] z4c4 | 
[V:3] G2G2G4 | 
[V:4] C,4E,3E, | 
[V:1] z4F4 | 
[V:2] d3dd4 | 
[V:3] F8 | 
[V:4] D,8 | 
[V:1] G3GG4 | 
[V:2] B2c2d4 | 
[V:3] E4D4- | 
[V:4] z4G,,4 | 
[V:1] z2F4E2 | 
[V:2] d4c3B | 
[V:3] D4E4 | 
[V:4] B,,3B,,A,,4 | 
[V:1] D4E4 | 
[V:2] A2B2c4 | 
[V:3] F4E4 | 
[V:4] D,2D,2C,2C,2 | 
[V:1] F4E2F2 | 
[V:2] A2B2c3c | 
[V:3] z8 | 
[V:4] D,4A,,4 | 
[V:1] G3GG4 | 
[V:2] c4B2G2 | 
[V:3] z8 | 
[V:4] z2C,2E,3E, | 
[V:1] F2F2E2D2 | 
[V:2] A2B2c2d2 | 
[V:3] F4G4- | 
[V:4] D,4C,2B,,2 | 
[V:1] E4EDCB, | 
[V:2] c8 | 
[V:3] G2G2G4 | 
[V:4] C,6C,2 | 
[V:1] A,2D4C2 | 
[V:2] A4z2A2- | 
[V:3] F6E2 | 
[V:4] D,4A,,4 | 
[V:1] F2E2D4- | 
[V:2] ABc2F2G2 | 
[V:3] D2C2D4 | 
[V:4] z2A,,2_B,,2B,,2 | 
[V:1] D2^CB,C4 | 
[V:2] A8 | 
[V:3] E8 | 
[V:4] A,,8 | 
[V:1] [M:3/1]D4D4C4 | 
[V:2] [M:3/1]A6B2c4 | 
[V:3] [M:3/1]D4F4G4 | 
[V:4] [M:3/1]D,8E,4 | 
[V:1] F8F4 | 
[V:2] d8d4 | 
[V:3] A8A4 | 
[V:4] D,8D,4 | 
[V:1] F8F4 | 
[V:2] d8c4 | 
[V:3] A8A4 | 
[V:4] D,6E,2F,4 | 
[V:1] E8G4 | 
[V:2] c8c4 | 
[V:3] G6FEE4- | 
[V:4] C,8C,4 | 
[V:1] G8E4 | 
[V:2] c8c4 | 
[V:3] E4G4G4 | 
[V:4] C,8C,4 | 
[V:1] D4A8 | 
[V:2] A8c4 | 
[V:3] F8E4 | 
[V:4] D,8A,,4 | 
[V:1] F8E4 | 
[V:2] d4B4c4 | 
[V:3] D8E4 | 
[V:4] D,8C,4 | 
[V:1] D4C4D4 | 
[V:2] A8A4 | 
[V:3] F4E4F4 | 
[V:4] D,4A,,4D,4 | 
[V:1] E6E2E4 | 
[V:2] c6c2c4 | 
[V:3] G6G2G4 | 
[V:4] C,6C,2C,4 | 
[V:1] A8G4 | 
[V:2] A8c4 | 
[V:3] F8E4 | 
[V:4] D,8E,4 | 
[V:1] F8E4 | 
[V:2] d4d4c4 | 
[V:3] D8E4 | 
[V:4] F,8C,4 | 
[V:1] D4C4D4 | 
[V:2] A8A4 | 
[V:3] F4E4F4 | 
[V:4] D,4A,,4D,4 | 
[V:1] E6E2E4 | 
[V:2] c6c2c4 | 
[V:3] G6G2G4 | 
[V:4] C,6C,2C,4 | 
[V:1] A8G4 | 
[V:2] c8c4 | 
[V:3] F8E4 | 
[V:4] F,,8C,4 | 
[V:1] F4E6D2 | 
[V:2] A4A4F4 | 
[V:3] D4C4D4- | 
[V:4] D,4A,,4_B,,4- | 
[V:1] D8^C4 | 
[V:2] G4A8 | 
[V:3] D4E8 | 
[V:4] B,,4A,,8 | 
[V:1] D12 |]  
[V:2] A12 |]  
[V:3] D12 |]  
[V:4] D,12 |]  
